img/icon1.svg

<svg width="78" height="41" viewBox="0 0 78 41" fill="none" xmlns="http://www.w3.org/2000/svg">
<path d="M1.03379 20.3919H32.4257L31.3919 23.1622L0 23.1622L1.03379 20.3919Z" fill="url(#paint0_linear)"/>
<path fill-rule="evenodd" clip-rule="evenodd" d="M1.72798 21.3919L1.44053 22.1622L30.6977 22.1622L30.9851 21.3919H1.72798ZM1.03379 20.3919L0 23.1622L31.3919 23.1622L32.4257 20.3919H1.03379Z" fill="url(#paint1_linear)"/>
<path d="M5.94391 13.3739L34.6419 13.3739L33.6056 15.9595L4.90764 15.9595L5.94391 13.3739Z" fill="url(#paint2_linear)"/>
<path fill-rule="evenodd" clip-rule="evenodd" d="M6.62045 14.3739L6.38576 14.9595L32.9291 14.9595L33.1638 14.3739L6.62045 14.3739ZM5.94391 13.3739L4.90764 15.9595L33.6056 15.9595L34.6419 13.3739L5.94391 13.3739Z" fill="url(#paint3_linear)"/>
<path d="M20.7225 6.17118L36.6734 6.17118L35.6333 8.94145L19.6824 8.94144L20.7225 6.17118Z" fill="url(#paint4_linear)"/>
<path fill-rule="evenodd" clip-rule="evenodd" d="M21.4152 7.17118L21.126 7.94144L34.9406 7.94144L35.2298 7.17118L21.4152 7.17118ZM20.7225 6.17118L19.6824 8.94144L35.6333 8.94145L36.6734 6.17118L20.7225 6.17118Z" fill="url(#paint5_linear)"/>
<path d="M58.4662 7.21126L58.4662 23.1622L55.6959 22.1221L55.696 6.17118L58.4662 7.21126Z" fill="url(#paint6_linear)"/>
<path fill-rule="evenodd" clip-rule="evenodd" d="M57.4662 7.90397L56.696 7.61478L56.6959 21.4294L57.4662 21.7186L57.4662 7.90397ZM58.4662 7.21126L55.696 6.17118L55.6959 22.1221L58.4662 23.1622L58.4662 7.21126Z" fill="url(#paint7_linear)"/>
<path d="M58.4846 21.1872L64.3945 26.4202L61.6058 27.4099L55.6959 22.177L58.4846 21.1872Z" fill="url(#paint8_linear)"/>
<path fill-rule="evenodd" clip-rule="evenodd" d="M58.2632 22.3269L57.6283 22.5523L61.8272 26.2702L62.4622 26.0449L58.2632 22.3269ZM58.4846 21.1872L55.6959 22.177L61.6058 27.4099L64.3945 26.4202L58.4846 21.1872Z" fill="url(#paint9_linear)"/>
<path d="M8.90316 27.5946L34.6419 27.5946L33.6013 30.3649L7.86261 30.3649L8.90316 27.5946Z" fill="url(#paint10_linear)"/>
<path fill-rule="evenodd" clip-rule="evenodd" d="M9.59576 28.5946L9.30644 29.3649L32.9087 29.3649L33.1981 28.5946L9.59576 28.5946ZM8.90316 27.5946L7.86261 30.3649L33.6013 30.3649L34.6419 27.5946L8.90316 27.5946Z" fill="url(#paint11_linear)"/>
<path d="M26.8248 34.7973L36.6734 34.7973L35.6256 37.5676L25.777 37.5676L26.8248 34.7973Z" fill="url(#paint12_linear)"/>
<path fill-rule="evenodd" clip-rule="evenodd" d="M27.5157 35.7973L27.2244 36.5676L34.9347 36.5676L35.2261 35.7973L27.5157 35.7973ZM26.8248 34.7973L25.777 37.5676L35.6256 37.5676L36.6734 34.7973L26.8248 34.7973Z" fill="url(#paint13_linear)"/>
<path fill-rule="evenodd" clip-rule="evenodd" d="M57.1734 38C66.8384 38 74.6734 30.165 74.6734 20.5C74.6734 10.835 66.8384 3 57.1734 3C47.5084 3 39.6734 10.835 39.6734 20.5C39.6734 30.165 47.5084 38 57.1734 38ZM57.1734 41C68.4953 41 77.6734 31.8218 77.6734 20.5C77.6734 9.17816 68.4953 1.90735e-06 57.1734 1.90735e-06C45.8516 1.90735e-06 36.6734 9.17816 36.6734 20.5C36.6734 31.8218 45.8516 41 57.1734 41Z" fill="url(#paint14_linear)"/>
<defs>
<linearGradient id="paint0_linear" x1="-3.23639" y1="20.1639" x2="81.1588" y2="20.1639" gradientUnits="userSpaceOnUse">
<stop stop-color="#5B40D7"/>
<stop offset="1" stop-color="#E85F62"/>
</linearGradient>
<linearGradient id="paint1_linear" x1="-3.23639" y1="20.1639" x2="81.1588" y2="20.1639" gradientUnits="userSpaceOnUse">
<stop stop-color="#5B40D7"/>
<stop offset="1" stop-color="#E85F62"/>
</linearGradient>
<linearGradient id="paint2_linear" x1="-3.23639" y1="20.1639" x2="81.1588" y2="20.1639" gradientUnits="userSpaceOnUse">
<stop stop-color="#5B40D7"/>
<stop offset="1" stop-color="#E85F62"/>
</linearGradient>
<linearGradient id="paint3_linear" x1="-3.23639" y1="20.1639" x2="81.1588" y2="20.1639" gradientUnits="userSpaceOnUse">
<stop stop-color="#5B40D7"/>
<stop offset="1" stop-color="#E85F62"/>
</linearGradient>
<linearGradient id="paint4_linear" x1="-3.23639" y1="20.1639" x2="81.1588" y2="20.1639" gradientUnits="userSpaceOnUse">
<stop stop-color="#5B40D7"/>
<stop offset="1" stop-color="#E85F62"/>
</linearGradient>
<linearGradient id="paint5_linear" x1="-3.23639" y1="20.1639" x2="81.1588" y2="20.1639" gradientUnits="userSpaceOnUse">
<stop stop-color="#5B40D7"/>
<stop offset="1" stop-color="#E85F62"/>
</linearGradient>
<linearGradient id="paint6_linear" x1="-3.23639" y1="20.1639" x2="81.1588" y2="20.1639" gradientUnits="userSpaceOnUse">
<stop stop-color="#5B40D7"/>
<stop offset="1" stop-color="#E85F62"/>
</linearGradient>
<linearGradient id="paint7_linear" x1="-3.23639" y1="20.1639" x2="81.1588" y2="20.1639" gradientUnits="userSpaceOnUse">
<stop stop-color="#5B40D7"/>
<stop offset="1" stop-color="#E85F62"/>
</linearGradient>
<linearGradient id="paint8_linear" x1="-3.23639" y1="20.1639" x2="81.1588" y2="20.1639" gradientUnits="userSpaceOnUse">
<stop stop-color="#5B40D7"/>
<stop offset="1" stop-color="#E85F62"/>
</linearGradient>
<linearGradient id="paint9_linear" x1="-3.23639" y1="20.1639" x2="81.1588" y2="20.1639" gradientUnits="userSpaceOnUse">
<stop stop-color="#5B40D7"/>
<stop offset="1" stop-color="#E85F62"/>
</linearGradient>
<linearGradient id="paint10_linear" x1="-3.23639" y1="20.1639" x2="81.1588" y2="20.1639" gradientUnits="userSpaceOnUse">
<stop stop-color="#5B40D7"/>
<stop offset="1" stop-color="#E85F62"/>
</linearGradient>
<linearGradient id="paint11_linear" x1="-3.23639" y1="20.1639" x2="81.1588" y2="20.1639" gradientUnits="userSpaceOnUse">
<stop stop-color="#5B40D7"/>
<stop offset="1" stop-color="#E85F62"/>
</linearGradient>
<linearGradient id="paint12_linear" x1="-3.23639" y1="20.1639" x2="81.1588" y2="20.1639" gradientUnits="userSpaceOnUse">
<stop stop-color="#5B40D7"/>
<stop offset="1" stop-color="#E85F62"/>
</linearGradient>
<linearGradient id="paint13_linear" x1="-3.23639" y1="20.1639" x2="81.1588" y2="20.1639" gradientUnits="userSpaceOnUse">
<stop stop-color="#5B40D7"/>
<stop offset="1" stop-color="#E85F62"/>
</linearGradient>
<linearGradient id="paint14_linear" x1="-3.23639" y1="20.1639" x2="81.1588" y2="20.1639" gradientUnits="userSpaceOnUse">
<stop stop-color="#5B40D7"/>
<stop offset="1" stop-color="#E85F62"/>
</linearGradient>
</defs>
</svg>

<svg width="78" height="41" fill="none" xmlns="http://www.w3.org/2000/svg"><path d="M1.034 20.392h31.392l-1.034 2.77H0l1.034-2.77z" fill="url(#paint0_linear)"/><path fill-rule="evenodd" clip-rule="evenodd" d="M1.728 21.392l-.287.77h29.257l.287-.77H1.728zm-.694-1L0 23.162h31.392l1.034-2.77H1.034z" fill="url(#paint1_linear)"/><path d="M5.944 13.374h28.698l-1.036 2.585H4.908l1.036-2.585z" fill="url(#paint2_linear)"/><path fill-rule="evenodd" clip-rule="evenodd" d="M6.62 14.374l-.234.585h26.543l.235-.585H6.62zm-.676-1l-1.036 2.585h28.698l1.036-2.585H5.944z" fill="url(#paint3_linear)"/><path d="M20.723 6.171h15.95l-1.04 2.77h-15.95l1.04-2.77z" fill="url(#paint4_linear)"/><path fill-rule="evenodd" clip-rule="evenodd" d="M21.415 7.171l-.289.77h13.815l.289-.77H21.415zm-.692-1l-1.04 2.77h15.95l1.04-2.77h-15.95z" fill="url(#paint5_linear)"/><path d="M58.466 7.211v15.951l-2.77-1.04V6.172l2.77 1.04z" fill="url(#paint6_linear)"/><path fill-rule="evenodd" clip-rule="evenodd" d="M57.466 7.904l-.77-.29V21.43l.77.29V7.904zm1-.693l-2.77-1.04v15.951l2.77 1.04V7.212z" fill="url(#paint7_linear)"/><path d="M58.485 21.187l5.91 5.233-2.79.99-5.91-5.233 2.79-.99z" fill="url(#paint8_linear)"/><path fill-rule="evenodd" clip-rule="evenodd" d="M58.263 22.327l-.635.225 4.2 3.718.634-.225-4.199-3.718zm.222-1.14l-2.79.99 5.91 5.233 2.79-.99-5.91-5.233z" fill="url(#paint9_linear)"/><path d="M8.903 27.595h25.739l-1.04 2.77H7.861l1.041-2.77z" fill="url(#paint10_linear)"/><path fill-rule="evenodd" clip-rule="evenodd" d="M9.596 28.595l-.29.77H32.91l.29-.77H9.595zm-.693-1l-1.04 2.77H33.6l1.04-2.77H8.904z" fill="url(#paint11_linear)"/><path d="M26.825 34.797h9.848l-1.047 2.77h-9.849l1.048-2.77z" fill="url(#paint12_linear)"/><path fill-rule="evenodd" clip-rule="evenodd" d="M27.516 35.797l-.292.77h7.71l.292-.77h-7.71zm-.691-1l-1.048 2.77h9.849l1.047-2.77h-9.848z" fill="url(#paint13_linear)"/><path fill-rule="evenodd" clip-rule="evenodd" d="M57.173 38c9.665 0 17.5-7.835 17.5-17.5S66.838 3 57.173 3s-17.5 7.835-17.5 17.5S47.508 38 57.173 38zm0 3c11.322 0 20.5-9.178 20.5-20.5S68.495 0 57.173 0c-11.321 0-20.5 9.178-20.5 20.5S45.852 41 57.173 41z" fill="url(#paint14_linear)"/><defs><linearGradient id="paint0_linear" x1="-3.236" y1="20.164" x2="81.159" y2="20.164" gradientUnits="userSpaceOnUse"><stop stop-color="#5B40D7"/><stop offset="1" stop-color="#E85F62"/></linearGradient><linearGradient id="paint1_linear" x1="-3.236" y1="20.164" x2="81.159" y2="20.164" gradientUnits="userSpaceOnUse"><stop stop-color="#5B40D7"/><stop offset="1" stop-color="#E85F62"/></linearGradient><linearGradient id="paint2_linear" x1="-3.236" y1="20.164" x2="81.159" y2="20.164" gradientUnits="userSpaceOnUse"><stop stop-color="#5B40D7"/><stop offset="1" stop-color="#E85F62"/></linearGradient><linearGradient id="paint3_linear" x1="-3.236" y1="20.164" x2="81.159" y2="20.164" gradientUnits="userSpaceOnUse"><stop stop-color="#5B40D7"/><stop offset="1" stop-color="#E85F62"/></linearGradient><linearGradient id="paint4_linear" x1="-3.236" y1="20.164" x2="81.159" y2="20.164" gradientUnits="userSpaceOnUse"><stop stop-color="#5B40D7"/><stop offset="1" stop-color="#E85F62"/></linearGradient><linearGradient id="paint5_linear" x1="-3.236" y1="20.164" x2="81.159" y2="20.164" gradientUnits="userSpaceOnUse"><stop stop-color="#5B40D7"/><stop offset="1" stop-color="#E85F62"/></linearGradient><linearGradient id="paint6_linear" x1="-3.236" y1="20.164" x2="81.159" y2="20.164" gradientUnits="userSpaceOnUse"><stop stop-color="#5B40D7"/><stop offset="1" stop-color="#E85F62"/></linearGradient><linearGradient id="paint7_linear" x1="-3.236" y1="20.164" x2="81.159" y2="20.164" gradientUnits="userSpaceOnUse"><stop stop-color="#5B40D7"/><stop offset="1" stop-color="#E85F62"/></linearGradient><linearGradient id="paint8_linear" x1="-3.236" y1="20.164" x2="81.159" y2="20.164" gradientUnits="userSpaceOnUse"><stop stop-color="#5B40D7"/><stop offset="1" stop-color="#E85F62"/></linearGradient><linearGradient id="paint9_linear" x1="-3.236" y1="20.164" x2="81.159" y2="20.164" gradientUnits="userSpaceOnUse"><stop stop-color="#5B40D7"/><stop offset="1" stop-color="#E85F62"/></linearGradient><linearGradient id="paint10_linear" x1="-3.236" y1="20.164" x2="81.159" y2="20.164" gradientUnits="userSpaceOnUse"><stop stop-color="#5B40D7"/><stop offset="1" stop-color="#E85F62"/></linearGradient><linearGradient id="paint11_linear" x1="-3.236" y1="20.164" x2="81.159" y2="20.164" gradientUnits="userSpaceOnUse"><stop stop-color="#5B40D7"/><stop offset="1" stop-color="#E85F62"/></linearGradient><linearGradient id="paint12_linear" x1="-3.236" y1="20.164" x2="81.159" y2="20.164" gradientUnits="userSpaceOnUse"><stop stop-color="#5B40D7"/><stop offset="1" stop-color="#E85F62"/></linearGradient><linearGradient id="paint13_linear" x1="-3.236" y1="20.164" x2="81.159" y2="20.164" gradientUnits="userSpaceOnUse"><stop stop-color="#5B40D7"/><stop offset="1" stop-color="#E85F62"/></linearGradient><linearGradient id="paint14_linear" x1="-3.236" y1="20.164" x2="81.159" y2="20.164" gradientUnits="userSpaceOnUse"><stop stop-color="#5B40D7"/><stop offset="1" stop-color="#E85F62"/></linearGradient></defs></svg>
